icons/16px/newRelease.svg

<svg width="16" height="16" viewBox="0 0 16 16" fill="none" xmlns="http://www.w3.org/2000/svg">
<path d="M6.15245 7.2709C6.30874 7.11463 6.56213 7.11463 6.71842 7.2709L7.49661 8.04904L9.33599 6.2098C9.49228 6.05353 9.74567 6.05353 9.90195 6.2098L10.3972 6.70498C10.5535 6.86126 10.5535 7.11463 10.3972 7.2709L7.7796 9.88828C7.62331 10.0446 7.36992 10.0446 7.21363 9.88828L5.65724 8.332C5.50095 8.17573 5.50095 7.92236 5.65724 7.76608L6.15245 7.2709Z" fill="black"/>
<path fill-rule="evenodd" clip-rule="evenodd" d="M8.28394 1.12972L9.99928 3.00033H12.6006C12.8216 3.00033 13.0008 3.17949 13.0008 3.40049V6.00157L14.8698 7.7104C15.0436 7.86927 15.0433 8.14306 14.8693 8.30159L13.0008 10.0032V12.6043C13.0008 12.8253 12.8216 13.0045 12.6006 13.0045H9.99928L8.3047 14.869C8.14655 15.043 7.87317 15.0438 7.71399 14.8707L5.99733 13.0045H3.39606C3.17504 13.0045 2.99587 12.8253 2.99587 12.6043V10.0189L1.1292 8.30117C0.956695 8.14244 0.956973 7.8701 1.1298 7.71171L2.99587 6.00157V3.40049C2.99587 3.17949 3.17504 3.00033 3.39606 3.00033H5.99733L7.69254 1.13133C7.85078 0.956866 8.12475 0.956119 8.28394 1.12972ZM9.37766 4.50095H11.5V6.62315L13.0008 8.0024L11.5 9.38166V11.5039H9.37766L7.99831 13.0045L6.61896 11.5039H4.4966V9.40071L2.99614 8.0024L4.4966 6.62315V4.50095H6.61896L7.99859 3.00033L9.37766 4.50095Z" fill="black"/>
</svg>

<?xml version="1.0" encoding="UTF-8"?>
<svg id="Layer_1" data-name="Layer 1" xmlns="http://www.w3.org/2000/svg" viewBox="0 0 16 16">
  <defs>
    <style>
      .cls-1 {
        fill-rule: evenodd;
        stroke-width: 0px;
      }
    </style>
  </defs>
  <path class="cls-1" d="m10.3972,6.705c.1563.1563.1563.4097,0,.5659l-2.6176,2.6174c-.1563.1563-.4097.1563-.566,0l-1.5564-1.5563c-.1562-.1562-.1562-.4096,0-.5659l.4952-.4952c.1562-.1562.4097-.1562.566,0l.7781.7781,1.8394-1.8392c.1563-.1562.4097-.1562.566,0l.4952.4952Zm4.4721,1.5966l-1.8685,1.7016v2.6011c0,.221-.1792.4002-.4002.4002h-2.6013l-1.6946,1.8645c-.1581.174-.4315.1748-.5907.0017l-1.7167-1.8662h-2.6013c-.221,0-.4002-.1792-.4002-.4002v-2.5854l-1.8666-1.7178c-.1725-.1587-.1722-.431.0006-.5894l1.866-1.7101v-2.6011c0-.221.1792-.4002.4002-.4002h2.6013l1.6952-1.869c.1583-.1745.4323-.1752.5914-.0016l1.7153,1.8706h2.6013c.221,0,.4002.1792.4002.4002v2.6011l1.869,1.7088c.1738.1589.1735.4327-.0005.5912Zm-1.8685-.2992l-1.5008-1.3792v-2.1222h-2.1223l-1.3791-1.5007-1.3796,1.5007h-2.1224v2.1222l-1.5004,1.3792,1.5004,1.3983v2.1032h2.1224l1.3793,1.5006,1.3794-1.5006h2.1223v-2.1223l1.5008-1.3793Z"/>
</svg>
